Adwaita++/apps/scalable/asunder.svg

<svg enable-background="new" height="128" viewBox="0 0 128 128" width="128" xmlns="http://www.w3.org/2000/svg">
  <path d="m56.25 12.742188c-24.610438 4.139165-43.25 25.434927-43.25 51.257812 0 28.808 23.192002 52 52 52 28.808 0 52-23.192 52-52 0-25.061811-17.55533-45.864673-41.087891-50.853516 1.177974 3.3243 2.196768 7.017371 3.455079 10.150391-4.196903 2.683548-8.218038 5.474187-11.945313 8.615234 0 .275809 3.182483 2.915117 6.134766 5.5l5.376953 4.703125-3.400391 2.25586a22.285716 22.285716 0 0 1 11.751953 19.628906 22.285716 22.285716 0 0 1 -22.285156 22.285156 22.285716 22.285716 0 0 1 -22.285156-22.285156 22.285716 22.285716 0 0 1 22.285156-22.285156 22.285716 22.285716 0 0 1 1.648438.082031c-3.665327-3.527334-6.173576-5.882643-10.357422-9.884766 3.192599-3.37208 5.681542-6.14758 8.144531-9.464843l-5.375-6.462891c-1.572083-1.892942-2.236204-2.628074-2.810547-3.242187z" opacity=".2"/>
  <path d="m60.148438 35.59375a27.857144 27.857142 0 0 0 -23.00586 27.40625 27.857144 27.857142 0 0 0 27.857422 27.857422 27.857144 27.857142 0 0 0 27.857422-27.857422 27.857144 27.857142 0 0 0 -20.867188-26.945312c.547755.472992 1.012308.872278 1.566407 1.357421l5.376953 4.703125-7.00586 4.648438c-3.732779 2.485878-5.857387 3.911474-7.058593 4.591797-1.201204.680324-1.464844.65496-1.464844.283203 0-.257616.879302-2.499591 1.955078-4.931641 1.075775-2.432044 1.827787-4.450686 1.681641-4.535156-2.50185-2.410862-4.686667-4.480763-6.892578-6.578125zm4.851562 16.263672c6.154201 0 11.142578 4.988379 11.142578 11.142578 0 6.1542-4.988377 11.142578-11.142578 11.142578s-11.142578-4.988378-11.142578-11.142578c0-6.154199 4.988377-11.142578 11.142578-11.142578z" fill="#848484"/>
  <path d="m59.667969 11.267578c-26.28501 2.653447-46.667969 24.724922-46.667969 51.732422 0 28.808001 23.192001 52 52 52s52-23.191999 52-52c0-25.197925-17.743401-46.098625-41.46875-50.941406 1.351827 3.578853 2.441035 7.765168 3.835938 11.238281-4.196903 2.683548-8.218038 5.474187-11.945313 8.615234 0 .275809 3.182483 2.915117 6.134766 5.5l5.376953 4.703125-2.601563 1.726563a22.285716 22.285714 0 0 1 10.953125 19.158203 22.285716 22.285714 0 0 1 -22.285156 22.285156 22.285716 22.285714 0 0 1 -22.285156-22.285156 22.285716 22.285714 0 0 1 22.285156-22.285156 22.285716 22.285714 0 0 1 .542969.027344c-3.077341-2.950751-5.51459-5.255047-9.251953-8.830079 3.192599-3.37208 5.681542-6.14758 8.144531-9.464843l-5.375-6.462891c-2.26277-2.724597-2.700964-3.13809-3.591797-4.080078 1.385367-.254975 2.777004-.493148 4.199219-.636719z" fill="#e4e4e4"/>
  <path d="m59.667969 11.267578c-26.28501 2.653447-46.667969 24.724922-46.667969 51.732422 0 .210891.021553.415222.033203.623047.589675-25.499335 19.345649-46.345044 43.892578-50.142578-.571719-.642877-.977825-1.069448-1.457031-1.576172 1.385367-.254975 2.777004-.493148 4.199219-.636719zm15.863281.791016c.246021.651319.476934 1.337886.708984 2.021484 22.973071 5.028716 40.163226 25.150384 40.730466 49.53711.0117-.205397.0293-.408784.0293-.617188 0-25.197925-17.743401-46.098625-41.46875-50.941406zm-32.722656 52.791015a22.285716 22.285714 0 0 0 -.09375 1.865235 22.285716 22.285714 0 0 0 .046875.927734 22.285716 22.285714 0 0 1 .046875-.935547 22.285716 22.285714 0 0 0 22.191406 20.435547 22.285716 22.285714 0 0 0 22.191406-20.421875 22.285716 22.285714 0 0 1 .054688 1.099609 22.285716 22.285714 0 0 0 .039062-1.105468 22.285716 22.285714 0 0 0 -.09375-1.84961 22.285716 22.285714 0 0 1 -22.191406 20.419922 22.285716 22.285714 0 0 1 -22.191406-20.435547z" fill="#fff" opacity=".2"/>
</svg>

<svg xmlns="http://www.w3.org/2000/svg" xmlns:xlink="http://www.w3.org/1999/xlink" style="enable-background:new" width="128" height="128" version="1.0" viewBox="0 0 128 128">
 <title id="title4162">
  Adwaita Icon Template
 </title>
 <defs>
  <linearGradient id="linearGradient950">
   <stop style="stop-color:#9a9996" id="stop946" offset="0"/>
   <stop style="stop-color:#77767b" id="stop948" offset="1"/>
  </linearGradient>
  <linearGradient id="linearGradient1001" x1="1660.857" x2="1662.99" y1="806.297" y2="812.882" gradientTransform="matrix(1.8293937,-0.81599442,0.81599442,1.8293937,-3645.9624,100.02949)" gradientUnits="userSpaceOnUse" xlink:href="#linearGradient950"/>
 </defs>
 <path style="opacity:0.2" d="M 56.25 12.742188 C 31.639562 16.881353 13 38.177115 13 64 C 13 92.808 36.192002 116 65 116 C 93.808 116 117 92.808 117 64 C 117 38.938189 99.44467 18.135327 75.912109 13.146484 C 77.090083 16.470784 78.108877 20.163855 79.367188 23.296875 C 75.170285 25.980423 71.14915 28.771062 67.421875 31.912109 C 67.421875 32.187918 70.604358 34.827226 73.556641 37.412109 L 78.933594 42.115234 L 75.533203 44.371094 A 22.285716 22.285716 0 0 1 87.285156 64 A 22.285716 22.285716 0 0 1 65 86.285156 A 22.285716 22.285716 0 0 1 42.714844 64 A 22.285716 22.285716 0 0 1 65 41.714844 A 22.285716 22.285716 0 0 1 66.648438 41.796875 C 62.983111 38.269541 60.474862 35.914232 56.291016 31.912109 C 59.483615 28.540029 61.972558 25.764529 64.435547 22.447266 L 59.060547 15.984375 C 57.488464 14.091433 56.824343 13.356301 56.25 12.742188 z"/>
 <path style="fill:#848484" d="M 60.148438 35.59375 A 27.857144 27.857142 0 0 0 37.142578 63 A 27.857144 27.857142 0 0 0 65 90.857422 A 27.857144 27.857142 0 0 0 92.857422 63 A 27.857144 27.857142 0 0 0 71.990234 36.054688 C 72.537989 36.52768 73.002542 36.926966 73.556641 37.412109 L 78.933594 42.115234 L 71.927734 46.763672 C 68.194955 49.24955 66.070347 50.675146 64.869141 51.355469 C 63.667937 52.035793 63.404297 52.010429 63.404297 51.638672 C 63.404297 51.381056 64.283599 49.139081 65.359375 46.707031 C 66.43515 44.274987 67.187162 42.256345 67.041016 42.171875 C 64.539166 39.761013 62.354349 37.691112 60.148438 35.59375 z M 65 51.857422 C 71.154201 51.857422 76.142578 56.845801 76.142578 63 C 76.142578 69.1542 71.154201 74.142578 65 74.142578 C 58.845799 74.142578 53.857422 69.1542 53.857422 63 C 53.857422 56.845801 58.845799 51.857422 65 51.857422 z"/>
 <path style="fill:#e4e4e4" d="M 59.667969 11.267578 C 33.382959 13.921025 13 35.9925 13 63 C 13 91.808001 36.192001 115 65 115 C 93.807999 115 117 91.808001 117 63 C 117 37.802075 99.256599 16.901375 75.53125 12.058594 C 76.883077 15.637447 77.972285 19.823762 79.367188 23.296875 C 75.170285 25.980423 71.14915 28.771062 67.421875 31.912109 C 67.421875 32.187918 70.604358 34.827226 73.556641 37.412109 L 78.933594 42.115234 L 76.332031 43.841797 A 22.285716 22.285714 0 0 1 87.285156 63 A 22.285716 22.285714 0 0 1 65 85.285156 A 22.285716 22.285714 0 0 1 42.714844 63 A 22.285716 22.285714 0 0 1 65 40.714844 A 22.285716 22.285714 0 0 1 65.542969 40.742188 C 62.465628 37.791437 60.028379 35.487141 56.291016 31.912109 C 59.483615 28.540029 61.972558 25.764529 64.435547 22.447266 L 59.060547 15.984375 C 56.797777 13.259778 56.359583 12.846285 55.46875 11.904297 C 56.854117 11.649322 58.245754 11.411149 59.667969 11.267578 z"/>
 <path style="opacity:0.2;fill:#ffffff" d="M 59.667969 11.267578 C 33.382959 13.921025 13 35.9925 13 63 C 13 63.210891 13.021553 63.415222 13.033203 63.623047 C 13.622878 38.123712 32.378852 17.278003 56.925781 13.480469 C 56.354062 12.837592 55.947956 12.411021 55.46875 11.904297 C 56.854117 11.649322 58.245754 11.411149 59.667969 11.267578 z M 75.53125 12.058594 C 75.777271 12.709913 76.008184 13.39648 76.240234 14.080078 C 99.213305 19.108794 116.40346 39.230462 116.9707 63.617188 C 116.9824 63.411791 117 63.208404 117 63 C 117 37.802075 99.256599 16.901375 75.53125 12.058594 z M 42.808594 64.849609 A 22.285716 22.285714 0 0 0 42.714844 66.714844 A 22.285716 22.285714 0 0 0 42.761719 67.642578 A 22.285716 22.285714 0 0 1 42.808594 66.707031 A 22.285716 22.285714 0 0 0 65 87.142578 A 22.285716 22.285714 0 0 0 87.191406 66.720703 A 22.285716 22.285714 0 0 1 87.246094 67.820312 A 22.285716 22.285714 0 0 0 87.285156 66.714844 A 22.285716 22.285714 0 0 0 87.191406 64.865234 A 22.285716 22.285714 0 0 1 65 85.285156 A 22.285716 22.285714 0 0 1 42.808594 64.849609 z"/>
</svg>
